X:216
T:Highland Laddie. RH.216
R:Reel
S:Rev.R.Harrison’s MS,c1815,Cumbria
O:England
A:Temple Sowerby,Cumbria
Z:vmp.Simon Wilson. Review PJH, 2008.
M:2/4
L:1/8
Q:1/4=160
K:G
e|dGBG|(Bcd)B|eAAB|eAAe|\
dBgB|d2B2|(G/A/B/c/) dA|BGG:|!
|:g|edeg|e2dB|eAAB|eAAe|\
dgBg|d2B2|(G/A/B/c/) dA|BGG:|

